packages/flat-components/src/components/HomePage/ClassPicker/icons/big-class.svg

<?xml version="1.0" encoding="UTF-8"?>
<svg width="132px" height="132px" viewBox="0 0 132 132" version="1.1" xmlns="http://www.w3.org/2000/svg" xmlns:xlink="http://www.w3.org/1999/xlink">
    <title>编组 50</title>
    <defs>
        <linearGradient x1="50%" y1="0%" x2="50%" y2="100%" id="linearGradient-1">
            <stop stop-color="#FFFFFF" stop-opacity="0.400267701" offset="0%"></stop>
            <stop stop-color="#FFFFFF" stop-opacity="0.663898601" offset="100%"></stop>
        </linearGradient>
    </defs>
    <g id="Flat-单窗口" stroke="none" stroke-width="1" fill="none" fill-rule="evenodd">
        <g id="创建房间（单窗口）" transform="translate(-414.000000, -213.000000)">
            <g id="编组-17" transform="translate(202.000000, 15.000000)">
                <g id="编组-50" transform="translate(212.000000, 198.000000)">
                    <polygon id="路径-74" fill="#BFD9FF" points="0 132 0 0 132 0 132 132"></polygon>
                    <rect id="矩形" fill="url(#linearGradient-1)" x="4" y="27" width="124" height="83" rx="8"></rect>
                    <circle id="椭圆形" fill="#66A1FF" cx="13" cy="36" r="3"></circle>
                    <path d="M17,109.839286 L20.9684029,83.4674444 C22.9871331,70.0520651 32.6162826,59.0318955 45.6397059,55.2321429 C59.5485196,51.174066 74.3640997,51.4538048 88.1098102,56.0340374 L90.0441176,56.6785714 C103.974421,61.3203126 113.699831,73.9441079 114.634645,88.5976139 L116,110 L116,110" id="路径-75备份" fill="#3381FF" transform="translate(66.500000, 79.500000) scale(-1, 1) translate(-66.500000, -79.500000) "></path>
                    <path d="M63.4705882,56 L62.894843,56.8564211 C61.0485428,59.6027926 57.9563459,61.25 54.6470588,61.25 L54.6470588,61.25 L54.6470588,61.25 L51.347422,61.904428 C47.8431724,62.5994375 44.2105021,61.7203317 41.4117647,59.5 L41.1129024,59.2629026 C38.514645,57.2016183 37,54.0665999 37,50.75 C37,47.3433452 38.1119284,44.0297835 40.1668645,41.3127014 L42.2941176,38.5 L42.2941176,38.5 L46.7860619,26.2500937 C48.4766203,21.6398 51.1603288,17.457674 54.6470588,14 L54.8906331,13.7584555 C58.1649132,10.5114611 62.4237468,8.44226472 67,7.875 C71.4567874,7.32254406 75.9205638,8.84622578 79.1093669,12.0084555 L79.3529412,12.25 L79.3529412,12.25 L80.9240249,13.2886609 C83.3072676,14.8642491 84.9645871,17.3244113 85.5294118,20.125 L85.7198147,21.069081 C86.1799709,23.3506892 86.4117647,25.672452 86.4117647,28 C86.4117647,30.301237 86.9514628,32.5704012 87.9875084,34.6252251 L88.1764706,35 C89.3452566,37.3180923 90.8810401,39.4320315 92.724408,41.2600379 L93.4705882,42 C95.6838098,44.1947781 96.6927736,47.3279969 96.1761613,50.4018402 L96.1176471,50.75 C95.5749103,53.9792836 93.289773,56.6431028 90.1806579,57.6708381 L89.9411765,57.75 L89.9411765,57.75 L89.5443787,58.1434911 C87.5376989,60.1334486 84.8260741,61.25 82,61.25 C79.3640182,61.25 77.0224418,59.5667642 76.1825748,57.0681599 L75.8235294,56 L75.8235294,56 L63.4705882,56 Z" id="路径-85" fill="#444E60"></path>
                    <path d="M62.2068966,97 L70.9302249,99.4513229 C76.9633842,101.146687 83.142554,102.271169 89.3861916,102.809927 L98.609073,103.605763 C103.149629,103.997564 107.300859,106.327836 110,110 L110,110 L110,110 L51,110" id="路径-77备份" fill="#FFFFFF" transform="translate(80.500000, 103.500000) scale(-1, 1) translate(-80.500000, -103.500000) "></path>
                    <path d="M79.4989242,23.4979679 L80.2277686,24.874674 C82.682937,29.5122143 83.6508531,34.7931754 83,40 L82.7770754,41.7833969 C82.2891889,45.6864886 79.9531728,49.1164512 76.5,51 C76.3244081,51.0957774 76.1472221,51.187697 75.9685659,51.2757475 L76.0470422,56.3305764 C76.1017634,59.8382359 74.0738,63.0452635 70.8813696,64.4995872 L70.8813696,64.4995872 L70.6964026,64.5838496 C67.5270061,66.02768 63.8466593,65.7979964 60.8813696,63.9713115 C58.0611008,62.2339627 56.7029088,58.8609982 57.5322595,55.6540567 L57.5322595,55.6540567 L59.3042954,48.8040455 C57.5382169,47.0971061 56.2743258,44.8862335 55.7265123,42.4083378 L54.7142857,37.8297872 L51.7496749,36.9467117 C50.1728328,36.477014 49.1828007,34.917631 49.4285714,33.2907801 C49.6682644,31.7041603 51.1145202,30.5874165 52.7101726,30.7568524 L55,31 L55.2762883,26.4347117 C55.6107424,20.9083123 59.9173751,16.4472742 65.4285714,15.9184397 C71.2208058,15.3626378 76.7763605,18.3553477 79.4989242,23.4979679 Z" id="形状结合" fill="#FFFFFF"></path>
                    <path d="M55,31 C55.2813828,26.7940673 58.7750563,23.5263158 62.9903909,23.5263158 L67.75,23.5263158 L67.75,23.5263158 L70.2323128,23.5263158 C72.0653912,23.5263158 73.8864253,23.2301001 75.625,22.6491228 C77.2483023,22.1066659 78.4566295,20.736193 78.7914832,19.0577286 L80,13 L80,13 L57.25,13 L52,23.5263158 L55,31 Z" id="路径-86" fill="#444E60"></path>
                </g>
            </g>
        </g>
    </g>
</svg>

<svg width="132" height="132" xmlns="http://www.w3.org/2000/svg"><defs><linearGradient x1="50%" y1="0%" x2="50%" y2="100%" id="a"><stop stop-color="#FFF" stop-opacity=".4" offset="0%"/><stop stop-color="#FFF" stop-opacity=".664" offset="100%"/></linearGradient></defs><g fill="none" fill-rule="evenodd"><path fill="#BFD9FF" d="M0 132V0h132v132z"/><rect fill="url(#a)" x="4" y="27" width="124" height="83" rx="8"/><circle fill="#66A1FF" cx="13" cy="36" r="3"/><path d="m116 109.84-3.968-26.373A34.808 34.808 0 0 0 87.36 55.232a71.234 71.234 0 0 0-42.47.802l-1.934.645a36.065 36.065 0 0 0-24.59 31.919L17 110" fill="#3381FF"/><path d="m63.47 56-.575.856a9.938 9.938 0 0 1-8.248 4.394l-3.3.654a12.175 12.175 0 0 1-9.935-2.404l-.3-.237A10.866 10.866 0 0 1 37 50.75c0-3.407 1.112-6.72 3.167-9.437l2.127-2.813 4.492-12.25A33.49 33.49 0 0 1 54.647 14l.244-.242A20.838 20.838 0 0 1 67 7.875a14.64 14.64 0 0 1 12.11 4.133l.243.242 1.571 1.039a10.74 10.74 0 0 1 4.605 6.836l.19.944c.461 2.282.693 4.603.693 6.931 0 2.301.54 4.57 1.576 6.625l.188.375a24.091 24.091 0 0 0 4.548 6.26l.747.74a9.593 9.593 0 0 1 2.705 8.402l-.058.348a8.83 8.83 0 0 1-5.937 6.92l-.24.08-.397.393A10.714 10.714 0 0 1 82 61.25a6.137 6.137 0 0 1-5.817-4.182L75.823 56H63.472Z" fill="#444E60"/><path d="m98.793 97-8.723 2.451a100 100 0 0 1-18.456 3.359l-9.223.796A15.825 15.825 0 0 0 51 110h59M79.499 23.498l.729 1.377A25.553 25.553 0 0 1 83 40l-.223 1.783a12.226 12.226 0 0 1-6.808 9.493l.078 5.055a8.825 8.825 0 0 1-5.166 8.169l-.185.084a10.452 10.452 0 0 1-9.815-.613 7.549 7.549 0 0 1-3.349-8.317l1.772-6.85a12.704 12.704 0 0 1-3.577-6.396l-1.013-4.578-2.964-.883a3.3 3.3 0 0 1-2.321-3.656 2.999 2.999 0 0 1 3.281-2.534L55 31l.276-4.565A11.247 11.247 0 0 1 65.43 15.918a14.368 14.368 0 0 1 14.07 7.58Z" fill="#FFF"/><path d="M55 31a8.008 8.008 0 0 1 7.99-7.474h7.242c1.833 0 3.654-.296 5.393-.877a4.77 4.77 0 0 0 3.166-3.591L80 13H57.25L52 23.526 55 31Z" fill="#444E60"/></g></svg>
